X:1
T:Title
%%score ( 1 2 ) ( 3 4 5 )
L:1/8
Q:1/4=110
M:4/4
K:G
V:1 treble nm="Grand Piano, Staff 1"
V:2 treble 
V:3 bass nm="Choir Pad, Carmina, 76.76"
V:4 bass 
V:5 bass 
V:1
 D2 [DG]2 FG [Dc]2 | [DB]2 [FA]4 G2 | GA [DB]2 [^DB]2 [EB]2 | AG [DA]6 | D2 [DG]2 FG [Ec]2 | %5
w: By~Arranged~from~Friedrich~Flowtow~(1812\-1883) * * * *|||||
 [DB]2 [CA]4 [B,G]2 | [=Fd]2 [Ed]2 [Ec]2 A2- | AB G6- | G2 z2 z4 |] %9
w: ||||
V:2
 z4 D2 z2 | x8 | D2 z2 z4 | ^C2 z2 z4 | z4 D2 z2 | x8 | z4 z2 ^F2 | F2 z2 z4 | x8 |] %9
V:3
 [G,B,]2 [G,B,]2 [A,C][G,B,] [F,A,]2 | [G,B,]2 [D,C]4 [G,B,]2 | %2
 [B,D][A,C] [G,B,]2 [F,A,]2 [E,G,]2 | [E,G,]2 [D,F,]6 | [C,F,]2 [B,,G,]2 [C,A,][B,,G,] [C,G,]2 | %5
 [G,,G,]2 [D,F,]4 [E,G,]2 | z4 z2 C2- | C z z2 z4 | z8 |] %9
V:4
 x8 | x8 | x8 | x8 | x8 | x8 | [B,,G,]2 [C,^G,]2 [C,A,]2 D,2 | z D [G,B,]6- | [G,B,]2 z2 z4 |] %9
V:5
 x8 | x8 | x8 | x8 | x8 | x8 | x8 | D,2 z2 z4 | x8 |] %9

